SVG_Azure_All/Resource Group.svg

<?xml version="1.0" encoding="UTF-8" standalone="no"?>
<!-- Generated by Microsoft Visio, SVG Export Resource Group.svg Page-1 -->

<svg
   xmlns:dc="http://purl.org/dc/elements/1.1/"
   xmlns:cc="http://creativecommons.org/ns#"
   xmlns:rdf="http://www.w3.org/1999/02/22-rdf-syntax-ns#"
   xmlns:svg="http://www.w3.org/2000/svg"
   xmlns="http://www.w3.org/2000/svg"
   xmlns:sodipodi="http://sodipodi.sourceforge.net/DTD/sodipodi-0.dtd"
   xmlns:inkscape="http://www.inkscape.org/namespaces/inkscape"
   width="0.78743511in"
   height="0.74873489in"
   viewBox="0 0 56.695236 53.908999"
   xml:space="preserve"
   class="st6"
   version="1.1"
   id="svg59"
   sodipodi:docname="Resource Group.svg"
   style="font-size:12px;overflow:visible;color-interpolation-filters:sRGB;fill:none;fill-rule:evenodd;stroke-linecap:square;stroke-miterlimit:3"
   inkscape:version="0.92.5 (2060ec1f9f, 2020-04-08)"><metadata
   id="metadata65"><rdf:RDF><cc:Work
       rdf:about=""><dc:format>image/svg+xml</dc:format><dc:type
         rdf:resource="http://purl.org/dc/dcmitype/StillImage" /></cc:Work></rdf:RDF></metadata><defs
   id="defs63" /><sodipodi:namedview
   pagecolor="#ffffff"
   bordercolor="#666666"
   borderopacity="1"
   objecttolerance="10"
   gridtolerance="10"
   guidetolerance="10"
   inkscape:pageopacity="0"
   inkscape:pageshadow="2"
   inkscape:window-width="640"
   inkscape:window-height="480"
   id="namedview61"
   showgrid="false"
   inkscape:zoom="1.4519288"
   inkscape:cx="37.795303"
   inkscape:cy="35.937552"
   inkscape:window-x="0"
   inkscape:window-y="0"
   inkscape:window-maximized="0"
   inkscape:current-layer="svg59" />
	<style
   type="text/css"
   id="style2">
	<![CDATA[
		.st1 {fill:#949494;stroke:none;stroke-linecap:butt;stroke-width:34}
		.st2 {fill:#a3a3a3;stroke:none;stroke-linecap:butt;stroke-width:34}
		.st3 {fill:#32bedd;stroke:none;stroke-linecap:butt;stroke-width:34}
		.st4 {fill:#9cebff;stroke:none;stroke-linecap:butt;stroke-width:34}
		.st5 {fill:#50e6ff;stroke:none;stroke-linecap:butt;stroke-width:34}
		.st6 {fill:none;fill-rule:evenodd;font-size:12px;overflow:visible;stroke-linecap:square;stroke-miterlimit:3}
	]]>
	</style>

	<g
   id="g57"
   transform="translate(-34.000179,-33.997707)">
		<title
   id="title4">Page-1</title>
		<g
   id="group1917-1"
   transform="translate(34,-34.0185)">
			<title
   id="title6">Resource Group</title>
			<g
   id="group1918-2">
				<title
   id="title8">Sheet.1918</title>
				<g
   id="shape1919-3">
					<title
   id="title10">Sheet.1919</title>
					<path
   d="m 0,115.4 a 0.53358,0.537585 -180 0 0 0.26679,0.47039 L 4.14,118.05 l 6.53,3.8 a 0.566929,0.571184 -180 0 0 0.767022,-0.20159 L 13.64,117.89 a 0.53358,0.537585 -180 0 0 -0.200093,-0.70558 L 5.77,112.81 A 0.566929,0.571184 0 0 1 5.50321,112.33961 L 5.5,77.67 A 0.53358,0.537585 0 0 1 5.76679,77.199613 L 13.44,72.83 a 0.53358,0.537585 -180 0 0 0.200093,-0.705581 L 11.44,68.36 A 0.566929,0.571184 -180 0 0 10.672978,68.091207 L 4.27,71.82 l -4,2.25 a 0.53358,0.537585 -180 0 0 -0.26679,0.470387 z"
   class="st1"
   id="path12"
   inkscape:connector-curvature="0"
   style="fill:#949494;stroke:none;stroke-width:34;stroke-linecap:butt" />
				</g>
				<g
   id="shape1920-5"
   transform="translate(0,-0.121621)">
					<title
   id="title15">Sheet.1920</title>
					<path
   d="m 5.47,77.52 0.2,-0.2 7.67,-4.37 a 0.466883,0.470387 -180 0 0 0.200093,-0.705581 L 11.34,68.48 A 0.500232,0.503986 -180 0 0 10.606327,68.211207 L 4.17,71.94 0.2,74.19 c 0,0 -0.17,0 -0.2,0.21 l 3,1.71 z m 7.87,39.71 -7.67,-4.36 A 0.733673,0.73918 0 0 1 5.436559,112.56761 L 0.03,115.92 H 0.2 l 3.84,2.19 6.66,3.73 a 0.500232,0.503986 -180 0 0 0.733673,-0.20159 L 13.64,117.87 a 0.466883,0.470387 -180 0 0 -0.300139,-0.63838 z"
   class="st2"
   id="path17"
   inkscape:connector-curvature="0"
   style="fill:#a3a3a3;stroke:none;stroke-width:34;stroke-linecap:butt" />
				</g>
				<g
   id="shape1921-7"
   transform="translate(43.0152)">
					<title
   id="title20">Sheet.1921</title>
					<path
   d="m 13.68,115.4 a 0.53358,0.537585 0 0 1 -0.26679,0.47039 L 9.54,118.05 3.01,121.85 A 0.566929,0.571184 0 0 1 2.242978,121.64841 L 0.04,117.89 a 0.53358,0.537585 0 0 1 0.200093,-0.70558 L 7.91,112.81 a 0.566929,0.571184 -180 0 0 0.26679,-0.47039 L 8.18,77.67 A 0.53358,0.537585 -180 0 0 7.91321,77.199613 L 0.24,72.83 A 0.53358,0.537585 0 0 1 0.039907,72.124419 L 2.24,68.36 A 0.566929,0.571184 0 0 1 3.007022,68.091207 L 9.41,71.75 l 4,2.26 a 0.53358,0.537585 0 0 1 0.26679,0.470387 z"
   class="st1"
   id="path22"
   inkscape:connector-curvature="0"
   style="fill:#949494;stroke:none;stroke-width:34;stroke-linecap:butt" />
				</g>
				<g
   id="shape1922-9"
   transform="translate(43.0854,-0.121621)">
					<title
   id="title25">Sheet.1922</title>
					<path
   d="M 8.14,77.52 7.94,77.32 0.27,72.95 A 0.466883,0.470387 0 0 1 0.069907,72.244419 L 2.27,68.48 A 0.500232,0.503986 0 0 1 3.003673,68.211207 L 9.44,71.88 l 3.97,2.25 0.2,0.2 -3,1.71 z m -7.87,39.71 7.67,-4.36 a 0.733673,0.73918 -180 0 0 0.233441,-0.30239 L 13.57,115.92 9.74,118.11 3.07,121.84 A 0.500232,0.503986 0 0 1 2.336327,121.63841 L 0.13,117.87 a 0.466883,0.470387 0 0 1 0.133395,-0.63838 z"
   class="st2"
   id="path27"
   inkscape:connector-curvature="0"
   style="fill:#a3a3a3;stroke:none;stroke-width:34;stroke-linecap:butt" />
				</g>
				<g
   id="shape1923-11"
   transform="translate(28.3131,-6.23894)">
					<title
   id="title30">Sheet.1923</title>
					<path
   d="m 17.74,90.9 v 20.62 L 0,121.91 v -20.67 z"
   class="st3"
   id="path32"
   inkscape:connector-curvature="0"
   style="fill:#32bedd;stroke:none;stroke-width:34;stroke-linecap:butt" />
				</g>
				<g
   id="shape1924-13"
   transform="translate(10.6049,-26.8688)">
					<title
   id="title35">Sheet.1924</title>
					<path
   d="M 35.45,111.52 17.74,121.91 0,111.52 17.74,101.14 Z"
   class="st4"
   id="path37"
   inkscape:connector-curvature="0"
   style="fill:#9cebff;stroke:none;stroke-width:34;stroke-linecap:butt" />
				</g>
				<g
   id="shape1925-15"
   transform="translate(10.6049,-6.23894)">
					<title
   id="title40">Sheet.1925</title>
					<path
   d="m 17.71,101.28 v 20.63 L 0,111.52 V 90.9 Z"
   class="st5"
   id="path42"
   inkscape:connector-curvature="0"
   style="fill:#50e6ff;stroke:none;stroke-width:34;stroke-linecap:butt" />
				</g>
				<g
   id="shape1926-17"
   transform="translate(10.6049,-6.23894)">
					<title
   id="title45">Sheet.1926</title>
					<path
   d="m 0,111.52 17.71,-10.28 v 20.67 z"
   class="st4"
   id="path47"
   inkscape:connector-curvature="0"
   style="fill:#9cebff;stroke:none;stroke-width:34;stroke-linecap:butt" />
				</g>
				<g
   id="shape1927-19"
   transform="translate(28.3131,-6.23894)">
					<title
   id="title50">Sheet.1927</title>
					<path
   d="M 17.74,111.52 0,101.24 v 20.67 z"
   class="st5"
   id="path52"
   inkscape:connector-curvature="0"
   style="fill:#50e6ff;stroke:none;stroke-width:34;stroke-linecap:butt" />
				</g>
			</g>
		</g>
	</g>
</svg>

<?xml version="1.0" encoding="UTF-8" standalone="no"?>
<!DOCTYPE svg PUBLIC "-//W3C//DTD SVG 1.1//EN" "http://www.w3.org/Graphics/SVG/1.1/DTD/svg11.dtd">
<!-- Generated by Microsoft Visio, SVG Export Resource Group.svg Page-1 -->
<svg xmlns="http://www.w3.org/2000/svg" xmlns:xlink="http://www.w3.org/1999/xlink" xmlns:ev="http://www.w3.org/2001/xml-events"
		width="1.73185in" height="1.69315in" viewBox="0 0 124.693 121.907" xml:space="preserve" color-interpolation-filters="sRGB"
		class="st6">
	<style type="text/css">
	<![CDATA[
		.st1 {fill:#949494;stroke:none;stroke-linecap:butt;stroke-width:34}
		.st2 {fill:#a3a3a3;stroke:none;stroke-linecap:butt;stroke-width:34}
		.st3 {fill:#32bedd;stroke:none;stroke-linecap:butt;stroke-width:34}
		.st4 {fill:#9cebff;stroke:none;stroke-linecap:butt;stroke-width:34}
		.st5 {fill:#50e6ff;stroke:none;stroke-linecap:butt;stroke-width:34}
		.st6 {fill:none;fill-rule:evenodd;font-size:12px;overflow:visible;stroke-linecap:square;stroke-miterlimit:3}
	]]>
	</style>

	<g>
		<title>Page-1</title>
		<g id="group1902-1" transform="translate(34,-34.0185)">
			<title>Resource Group</title>
			<g id="group1903-2">
				<title>Sheet.1903</title>
				<g id="shape1904-3">
					<title>Sheet.1904</title>
					<path d="M0 115.4 a0.53358 0.537585 -180 0 0 0.26679 0.470387 L4.14 118.05 L10.67 121.85 a0.566929 0.571184 -180
								 0 0 0.767022 -0.201594 L13.64 117.89 a0.53358 0.537585 -180 0 0 -0.200093 -0.705581 L5.77 112.81
								 a0.566929 0.571184 0 0 1 -0.26679 -0.470387 L5.5 77.67 a0.53358 0.537585 0 0 1 0.26679 -0.470387
								 L13.44 72.83 a0.53358 0.537585 -180 0 0 0.200093 -0.705581 L11.44 68.36 a0.566929 0.571184 -180
								 0 0 -0.767022 -0.268793 L4.27 71.82 L0.27 74.07 a0.53358 0.537585 -180 0 0 -0.26679 0.470387 L0
								 115.4 Z" class="st1"/>
				</g>
				<g id="shape1905-5" transform="translate(0,-0.121621)">
					<title>Sheet.1905</title>
					<path d="M5.47 77.52 L5.67 77.32 L13.34 72.95 a0.466883 0.470387 -180 0 0 0.200093 -0.705581 L11.34 68.48 a0.500232
								 0.503986 -180 0 0 -0.733673 -0.268793 L4.17 71.94 L0.2 74.19 C0.2 74.19 0.03 74.19 0 74.4 L3 76.11
								 L5.47 77.52 ZM13.34 117.23 L5.67 112.87 a0.733673 0.73918 0 0 1 -0.233441 -0.302392 L0.03 115.92
								 L0.2 115.92 L4.04 118.11 L10.7 121.84 a0.500232 0.503986 -180 0 0 0.733673 -0.201594 L13.64 117.87
								 a0.466883 0.470387 -180 0 0 -0.300139 -0.638382 Z" class="st2"/>
				</g>
				<g id="shape1906-7" transform="translate(43.0152,1.42109E-14)">
					<title>Sheet.1906</title>
					<path d="M13.68 115.4 a0.53358 0.537585 0 0 1 -0.26679 0.470387 L9.54 118.05 L3.01 121.85 a0.566929 0.571184
								 0 0 1 -0.767022 -0.201594 L0.04 117.89 a0.53358 0.537585 0 0 1 0.200093 -0.705581 L7.91 112.81 a0.566929
								 0.571184 -180 0 0 0.26679 -0.470387 L8.18 77.67 a0.53358 0.537585 -180 0 0 -0.26679 -0.470387 L0.24
								 72.83 a0.53358 0.537585 0 0 1 -0.200093 -0.705581 L2.24 68.36 a0.566929 0.571184 0 0 1 0.767022
								 -0.268793 L9.41 71.75 L13.41 74.01 a0.53358 0.537585 0 0 1 0.26679 0.470387 L13.68 115.4 Z"
							class="st1"/>
				</g>
				<g id="shape1907-9" transform="translate(43.0854,-0.121621)">
					<title>Sheet.1907</title>
					<path d="M8.14 77.52 L7.94 77.32 L0.27 72.95 a0.466883 0.470387 0 0 1 -0.200093 -0.705581 L2.27 68.48 a0.500232
								 0.503986 0 0 1 0.733673 -0.268793 L9.44 71.88 L13.41 74.13 L13.61 74.33 L10.61 76.04 L8.14 77.52
								 ZM0.27 117.23 L7.94 112.87 a0.733673 0.73918 -180 0 0 0.233441 -0.302392 L13.57 115.92 L9.74 118.11
								 L3.07 121.84 a0.500232 0.503986 0 0 1 -0.733673 -0.201594 L0.13 117.87 a0.466883 0.470387 0 0 1
								 0.133395 -0.638382 Z" class="st2"/>
				</g>
				<g id="shape1908-11" transform="translate(28.3131,-6.23894)">
					<title>Sheet.1908</title>
					<path d="M17.74 90.9 L17.74 111.52 L0 121.91 L0 101.24 L17.74 90.9 Z" class="st3"/>
				</g>
				<g id="shape1909-13" transform="translate(10.6049,-26.8688)">
					<title>Sheet.1909</title>
					<path d="M35.45 111.52 L17.74 121.91 L0 111.52 L17.74 101.14 L35.45 111.52 Z" class="st4"/>
				</g>
				<g id="shape1910-15" transform="translate(10.6049,-6.23894)">
					<title>Sheet.1910</title>
					<path d="M17.71 101.28 L17.71 121.91 L0 111.52 L0 90.9 L17.71 101.28 Z" class="st5"/>
				</g>
				<g id="shape1911-17" transform="translate(10.6049,-6.23894)">
					<title>Sheet.1911</title>
					<path d="M0 111.52 L17.71 101.24 L17.71 121.91 L0 111.52 Z" class="st4"/>
				</g>
				<g id="shape1912-19" transform="translate(28.3131,-6.23894)">
					<title>Sheet.1912</title>
					<path d="M17.74 111.52 L0 101.24 L0 121.91 L17.74 111.52 Z" class="st5"/>
				</g>
			</g>
		</g>
	</g>
</svg>
